lib/flags/m/GR.svg

<svg xmlns="http://www.w3.org/2000/svg" fill="none" viewBox="0 0 20 15"><mask id="GR_svg__a" width="20" height="15" x="0" y="0" mask-type="alpha" maskUnits="userSpaceOnUse"><path fill="#fff" d="M0 0H20V15H0z"/></mask><g mask="url(#GR_svg__a)"><path fill="#F7FCFF" fill-rule="evenodd" d="M0 0H20V15H0V0Z" clip-rule="evenodd"/><path fill="#4564F9" d="M.017 3.438H20.017V5.313000000000001H.017z"/><path fill="#4564F9" fill-rule="evenodd" d="M0 0H20V1.875H0V0Z" clip-rule="evenodd"/><path fill="#4564F9" d="M-.037 6.875H19.963V8.75H-.037z"/><path fill="#4564F9" d="M.07 10.25H20.07V12.125H.07z"/><path fill="#4564F9" d="M.063 13.438H20.063V15.313H.063z"/><path fill="#4564F9" fill-rule="evenodd" d="M0 0H10V8.75H0V0Z" clip-rule="evenodd"/><path fill="#F7FCFF" fill-rule="evenodd" d="M4.04442 0H6.02211V3.4375H10V5.80399H6.02211V9.375H4.04442V5.80399H0V3.4375H4.04442V0Z" clip-rule="evenodd"/></g></svg>

<svg xmlns="http://www.w3.org/2000/svg" fill="none" viewBox="0 0 20 15"><mask id="GR_svg__a" width="20" height="15" x="0" y="0" maskUnits="userSpaceOnUse"><path fill="#fff" d="M0 0h20v15H0z"/></mask><g mask="url(#GR_svg__a)"><path fill="#F7FCFF" fill-rule="evenodd" d="M0 0h20v15H0V0z" clip-rule="evenodd"/><path fill="#4564F9" d="M.017 3.438h20v1.875h-20z"/><path fill="#4564F9" fill-rule="evenodd" d="M0 0h20v1.875H0V0z" clip-rule="evenodd"/><path fill="#4564F9" d="M-.037 6.875h20V8.75h-20zM.07 10.25h20v1.875h-20zm-.007 3.188h20v1.875h-20z"/><path fill="#4564F9" fill-rule="evenodd" d="M0 0h10v8.75H0V0z" clip-rule="evenodd"/><path fill="#F7FCFF" fill-rule="evenodd" d="M4.044 0h1.978v3.438H10v2.366H6.022v3.571H4.044V5.804H0V3.437h4.044V0z" clip-rule="evenodd"/></g></svg>
